packages/assets/static/images/icons/van.svg

<svg width="24" height="24" viewBox="0 0 24 24" xmlns="http://www.w3.org/2000/svg">
<path d="M23.0694 9.63363L18.8001 4.65926C18.6593 4.49106 18.4833 4.35578 18.2845 4.26297C18.0858 4.17015 17.8691 4.12206 17.6497 4.12207H2.25037C1.85254 4.12207 1.47101 4.28011 1.18971 4.56141C0.908401 4.84271 0.750366 5.22425 0.750366 5.62207V16.1221C0.750366 16.5199 0.908401 16.9014 1.18971 17.1827C1.47101 17.464 1.85254 17.6221 2.25037 17.6221H3.84412C4.00934 18.2674 4.38464 18.8393 4.91085 19.2478C5.43706 19.6563 6.08424 19.878 6.75037 19.878C7.41649 19.878 8.06368 19.6563 8.58988 19.2478C9.11609 18.8393 9.49139 18.2674 9.65662 17.6221H14.3441C14.5093 18.2674 14.8846 18.8393 15.4108 19.2478C15.9371 19.6563 16.5842 19.878 17.2504 19.878C17.9165 19.878 18.5637 19.6563 19.0899 19.2478C19.6161 18.8393 19.9914 18.2674 20.1566 17.6221H21.7504C22.1482 17.6221 22.5297 17.464 22.811 17.1827C23.0923 16.9014 23.2504 16.5199 23.2504 16.1221V10.1221C23.2503 9.94287 23.1862 9.7696 23.0694 9.63363ZM20.8682 9.37207H15.7504V5.62207H17.6497L20.8682 9.37207ZM9.00037 9.37207V5.62207H14.2504V9.37207H9.00037ZM7.50037 5.62207V9.37207H2.25037V5.62207H7.50037ZM6.75037 18.3721C6.45369 18.3721 6.16368 18.2841 5.91701 18.1193C5.67034 17.9545 5.47808 17.7202 5.36455 17.4461C5.25102 17.172 5.22131 16.8704 5.27919 16.5794C5.33707 16.2885 5.47993 16.0212 5.68971 15.8114C5.89949 15.6016 6.16676 15.4588 6.45773 15.4009C6.7487 15.343 7.0503 15.3727 7.32439 15.4863C7.59848 15.5998 7.83275 15.792 7.99757 16.0387C8.16239 16.2854 8.25037 16.5754 8.25037 16.8721C8.25037 17.2699 8.09233 17.6514 7.81103 17.9327C7.52972 18.214 7.14819 18.3721 6.75037 18.3721ZM17.2504 18.3721C16.9537 18.3721 16.6637 18.2841 16.417 18.1193C16.1703 17.9545 15.9781 17.7202 15.8645 17.4461C15.751 17.172 15.7213 16.8704 15.7792 16.5794C15.8371 16.2885 15.9799 16.0212 16.1897 15.8114C16.3995 15.6016 16.6668 15.4588 16.9577 15.4009C17.2487 15.343 17.5503 15.3727 17.8244 15.4863C18.0985 15.5998 18.3327 15.792 18.4976 16.0387C18.6624 16.2854 18.7504 16.5754 18.7504 16.8721C18.7504 17.2699 18.5923 17.6514 18.311 17.9327C18.0297 18.214 17.6482 18.3721 17.2504 18.3721ZM20.1566 16.1221C19.9914 15.4768 19.6161 14.9048 19.0899 14.4963C18.5637 14.0879 17.9165 13.8662 17.2504 13.8662C16.5842 13.8662 15.9371 14.0879 15.4108 14.4963C14.8846 14.9048 14.5093 15.4768 14.3441 16.1221H9.65662C9.49139 15.4768 9.11609 14.9048 8.58988 14.4963C8.06368 14.0879 7.41649 13.8662 6.75037 13.8662C6.08424 13.8662 5.43706 14.0879 4.91085 14.4963C4.38464 14.9048 4.00934 15.4768 3.84412 16.1221H2.25037V10.8721H21.7504V16.1221H20.1566Z"/>
</svg>

<svg viewBox="0 0 24 24" xmlns="http://www.w3.org/2000/svg" aria-hidden="true" fill="currentColor"><path d="M23.07 9.634 18.8 4.659a1.5 1.5 0 0 0-1.15-.537H2.25a1.5 1.5 0 0 0-1.5 1.5v10.5a1.5 1.5 0 0 0 1.5 1.5h1.594a3 3 0 0 0 5.813 0h4.687a3 3 0 0 0 5.813 0h1.593a1.5 1.5 0 0 0 1.5-1.5v-6a.75.75 0 0 0-.18-.488m-2.202-.262H15.75v-3.75h1.9zM9 9.372v-3.75h5.25v3.75zm-1.5-3.75v3.75H2.25v-3.75zm-.75 12.75a1.5 1.5 0 1 1 0-3 1.5 1.5 0 0 1 0 3m10.5 0a1.5 1.5 0 1 1 0-3 1.5 1.5 0 0 1 0 3m2.907-2.25a3 3 0 0 0-5.813 0H9.657a3 3 0 0 0-5.813 0H2.25v-5.25h19.5v5.25z"/></svg>
